Sources/FrostedUI/Resources/Icons.xcassets/lightsOff16.imageset/lights-off-16.svg

<svg width="16" height="16" viewBox="0 0 16 16" fill="none" xmlns="http://www.w3.org/2000/svg" data-fui-icon="true">
  <path
    d="M9.5 14.5C9.91421 14.5 10.25 14.8358 10.25 15.25C10.25 15.6642 9.91421 16 9.5 16H6.5C6.08579 16 5.75 15.6642 5.75 15.25C5.75 14.8358 6.08579 14.5 6.5 14.5H9.5ZM8 3.25C10.9743 3.25 12.75 5.64855 12.75 8C12.75 9.85573 11.3979 10.9799 10.7744 11.4053C10.7671 11.4103 10.7607 11.4157 10.7559 11.4209C10.7526 11.4243 10.7505 11.4275 10.749 11.4297C10.7401 12.5746 9.81011 13.5 8.66309 13.5H7.33691C6.18989 13.5 5.2589 12.5746 5.25 11.4297C5.24849 11.4275 5.24714 11.4241 5.24414 11.4209C5.23927 11.4157 5.2329 11.4103 5.22559 11.4053C4.60209 10.9799 3.25 9.85573 3.25 8C3.25 5.64855 5.02569 3.25 8 3.25ZM8 4.75C5.97431 4.75 4.75 6.35145 4.75 8C4.75 9.07539 5.54599 9.80818 6.07031 10.166C6.44878 10.4242 6.74999 10.8719 6.75 11.4131C6.75 11.7372 7.01279 12 7.33691 12H8.66309C8.98721 12 9.25 11.7372 9.25 11.4131C9.25001 10.8719 9.55122 10.4242 9.92969 10.166C10.454 9.80818 11.25 9.07539 11.25 8C11.25 6.35145 10.0257 4.75 8 4.75Z"
    fill="currentColor"
  />
</svg>

<svg xmlns="http://www.w3.org/2000/svg" width="16" height="16" fill="none" data-fui-icon="true" viewBox="0 0 16 16"><path fill="currentColor" d="M9.5 14.5a.75.75 0 0 1 0 1.5h-3a.75.75 0 0 1 0-1.5zM8 3.25c2.974 0 4.75 2.399 4.75 4.75 0 1.856-1.352 2.98-1.976 3.405l-.018.016-.007.009a2.086 2.086 0 0 1-2.086 2.07H7.337a2.087 2.087 0 0 1-2.087-2.07l-.006-.01-.018-.015C4.602 10.98 3.25 9.855 3.25 8c0-2.351 1.776-4.75 4.75-4.75m0 1.5C5.974 4.75 4.75 6.351 4.75 8c0 1.075.796 1.808 1.32 2.166.379.258.68.706.68 1.247 0 .324.263.587.587.587h1.326a.587.587 0 0 0 .587-.587c0-.541.301-.989.68-1.247.524-.358 1.32-1.09 1.32-2.166 0-1.649-1.224-3.25-3.25-3.25"/></svg>
